X:1
T:Title
%%score { ( 1 3 ) | ( 2 4 ) }
L:1/8
M:4/4
K:Bb
V:1 treble nm="Grand Piano"
V:3 treble 
V:2 bass 
V:4 bass 
V:1
 z4 z2[Q:1/4=100] d2 | d3 B AcBG | =E4 z4 | B4 G2 c2 | c6 z2 | d4 z4 | f4 z4 | d4 G2 c2 | %8
[M:3/4] B6 |[M:1/4] B2 |[M:4/4] [Ec]4 z4 | B6 B2 | [Ec]4 z4 | B6 z2 | d4 z4 | [Ge]4 [EG]2 [EG]2 | %16
 [=Ec]4 z4 |[M:3/4] F6 |[M:1/4] F2 |[M:4/4] d4 z4 | =E4 z4 | B4 G2 c2 | c6 z2 | d4 z4 | f4 z4 | %25
 d4 G2 c2 |[M:7/8] B-B-B- B- B3 |] %27
V:2
 z8 | [B,,F,]2 [B,,F,]2 ^F,2 G,A, | B,,2 B,,2 B,,2[K:treble] B2 | %3
 z [G,B,][G,B,][G,B,D] z [G,B,C][G,B,C=E][G,B,C] | z [F,A,][F,A,][F,A,] [F,A,]2 [F,A,E]2 | %5
 z [F,B,][F,B,][F,B,D] z [F,B,D][F,B,D][F,B,D] | z [G,C][G,C][G,C] [G,CE]2 [^F,CE]2 | %7
 [F,B,D][F,B,][F,B,][F,B,D] [G,B,C=E][G,B,C][F,A,C_E][F,A,C] | %8
[M:3/4] [B,,F,B,][B,,F,B,] [B,,F,B,][B,,F,B,] [B,,F,B,]2 |[M:1/4] D2 | %10
[M:4/4] z F,F,[F,A,E] z [F,A,E][F,A,F][F,A,E] | z F,F,F, z [F,B,][F,B,D][F,B,] | %12
 z F,F,[F,A,E] z [F,A,][F,A,][F,A,] | z [F,B,][F,B,][F,B,] [F,B,]2 z2 | %14
 z [F,B,D][F,B,D][F,B,D] z [F,B,D][F,B,D]F, | z G,G,G, z G,G,G, | %16
 z G,G,G, z [G,B,C=E][G,B,CE][G,B,CE] |[M:3/4] z F, [F,A,][F,A,] [F,A,]2 |[M:1/4] [F,A,E]2 | %19
[M:4/4] [B,,F,B,][B,,F,B,][B,,F,B,][B,,F,B,] [B,,^F,][B,,F,][B,,G,]B,, | %20
 B,,B,,B,,B,, B,,2[K:treble] B2 | %21
 [G,,D,G,][G,,D,G,][G,,D,G,][G,,D,G,] [C,G,B,][C,G,B,][C,G,B,][C,G,B,C] | %22
 [F,A,CE][F,A,C][F,A,C][F,A,C] [F,A,C]2 [F,A,_D]2 | %23
 [B,,F,B,][B,,F,B,][B,,F,B,][B,,F,B,] z [F,B,DF][F,B,D][F,B,D] | z G,G,G, [G,CE]2 [^F,CE^F]2 | %25
 [F,B,DF][F,B,D][F,B,D][F,B,D] [G,B,C=E][G,B,C][F,A,C_E][F,A,C] | %26
[M:7/8] [B,,F,B,][B,,F,B,][B,,F,B,] [B,,F,B,] [B,,F,B,]3 |] %27
V:3
 x8 | D2 D2 E4 | [B,_D]2 [B,D]2 [B,=DF]2 z2 | z DDA z =E z E | z EEE E2 _d2 | z DDB FBdf | %6
 z EEE e2 Bc | z DDF z =E z _E |[M:3/4] DD DD D2 |[M:1/4] x2 |[M:4/4] z A,A,c [D=B]cdc | %11
 D[B,DF][B,DG][B,DF] DD z D | z A,A,c [D=B][Ec][Ge][Fd] | DDDD D2 d2 | %14
 z cB[Ad] [_Ad][Ad][Ac][DAd] | z [B,E][B,E][B,E] z B,B,B, | z [B,C][B,C][B,C=EB] [EA]cBG | %17
[M:3/4] z A, CD E2 |[M:1/4] x2 |[M:4/4] [DF][DF][DF][DFB] [EA][Ec][EB][A,EG] | %20
 [G,B,_D][G,B,D][G,B,D][G,B,D] [F,B,=DF]2 z2 | [B,D][B,D][B,D][B,DA] [C=E][CE][CE]E | %22
 z EEE E2 _d2 | [DF][DF][DF][DFB] FB[FBd][FBf] | [Gc][CEGc][CEGc][CEGc] [Gce]2 Bc | %25
 z FFF z =E z _E |[M:7/8] DDD D D3 |] %27
V:4
 x8 | z4 B,,4 | x6[K:treble] x2 | G,,4 C,,4 | F,,6 z2 | B,,4 D,4 | C,6 z2 | x8 |[M:3/4] x6 | %9
[M:1/4] x2 |[M:4/4] F,,4 F,,4 | B,,4 B,,4 | F,,4 F,,4 | B,,6 z2 | B,,4 B,,4 | E,4 E,4 | C,4 C,4 | %17
[M:3/4] F,,6 |[M:1/4] x2 |[M:4/4] x8 | x6[K:treble] x2 | x8 | F,,6 z2 | z4 D,4 | C,6 z2 | x8 | %26
[M:7/8] x7 |] %27

